material/.icons/material/ev-station.svg

<svg xmlns="http://www.w3.org/2000/svg" viewBox="0 0 24 24"><path d="M19.77 7.23l.01-.01-3.72-3.72L15 4.56l2.11 2.11c-.94.36-1.61 1.26-1.61 2.33a2.5 2.5 0 002.5 2.5c.36 0 .69-.08 1-.21v7.21a1 1 0 01-1 1 1 1 0 01-1-1V14a2 2 0 00-2-2h-1V5a2 2 0 00-2-2H6a2 2 0 00-2 2v16h10v-7.5h1.5v5A2.5 2.5 0 0018 21a2.5 2.5 0 002.5-2.5V9c0-.69-.28-1.32-.73-1.77M18 10a1 1 0 01-1-1 1 1 0 011-1 1 1 0 011 1 1 1 0 01-1 1M8 18v-4.5H6L10 6v5h2l-4 7z"/></svg>

<?xml version="1.0" encoding="UTF-8"?><!DOCTYPE svg PUBLIC "-//W3C//DTD SVG 1.1//EN" "http://www.w3.org/Graphics/SVG/1.1/DTD/svg11.dtd"><svg xmlns="http://www.w3.org/2000/svg" xmlns:xlink="http://www.w3.org/1999/xlink" version="1.1" id="mdi-ev-station" width="24" height="24" viewBox="0 0 24 24"><path d="M19.77,7.23L19.78,7.22L16.06,3.5L15,4.56L17.11,6.67C16.17,7.03 15.5,7.93 15.5,9A2.5,2.5 0 0,0 18,11.5C18.36,11.5 18.69,11.42 19,11.29V18.5A1,1 0 0,1 18,19.5A1,1 0 0,1 17,18.5V14A2,2 0 0,0 15,12H14V5A2,2 0 0,0 12,3H6A2,2 0 0,0 4,5V21H14V13.5H15.5V18.5A2.5,2.5 0 0,0 18,21A2.5,2.5 0 0,0 20.5,18.5V9C20.5,8.31 20.22,7.68 19.77,7.23M18,10A1,1 0 0,1 17,9A1,1 0 0,1 18,8A1,1 0 0,1 19,9A1,1 0 0,1 18,10M8,18V13.5H6L10,6V11H12L8,18Z" /></svg>
